app/core/icons/tagIcon.svg

<svg fill="none" height="14" viewBox="0 0 14 14" width="14" xmlns="http://www.w3.org/2000/svg"><path d="m11.6693 5.83398v-1.16666h-2.33336v-2.33334h-1.16667v2.33334h-2.33333v-2.33334h-1.16667v2.33334h-2.33333v1.16666h2.33333v2.33334h-2.33333v1.16666h2.33333v2.33332h1.16667v-2.33332h2.33333v2.33332h1.16667v-2.33332h2.33336v-1.16666h-2.33336v-2.33334zm-3.50003 2.33334h-2.33333v-2.33334h2.33333z" fill="#708fc2"/></svg>

<svg width="14" height="14" viewBox="0 0 14 14" fill="none" xmlns="http://www.w3.org/2000/svg">
<path d="M11.6693 5.83398V4.66732H9.33594V2.33398H8.16927V4.66732H5.83594V2.33398H4.66927V4.66732H2.33594V5.83398H4.66927V8.16732H2.33594V9.33398H4.66927V11.6673H5.83594V9.33398H8.16927V11.6673H9.33594V9.33398H11.6693V8.16732H9.33594V5.83398H11.6693ZM8.16927 8.16732H5.83594V5.83398H8.16927V8.16732Z" fill="#708FC2"/>
</svg>
